src/icons/aws-firewall-manager.svg

<?xml version="1.0" encoding="UTF-8"?>
<svg xmlns="http://www.w3.org/2000/svg" xmlns:xlink="http://www.w3.org/1999/xlink" width="32" height="32" viewBox="0 0 32 32" version="1.1">
<defs>
<linearGradient id="linear0" gradientUnits="userSpaceOnUse" x1="0" y1="1" x2="1" y2="0" gradientTransform="matrix(32,0,0,32,0,0)">
<stop offset="0" style="stop-color:rgb(74.117649%,3.137255%,8.627451%);stop-opacity:1;"/>
<stop offset="1" style="stop-color:rgb(100%,32.156864%,32.156864%);stop-opacity:1;"/>
</linearGradient>
</defs>
<g id="surface1">
<rect x="0" y="0" width="32" height="32" style="fill:url(#linear0);stroke:none;"/>
<path style=" stroke:none;fill-rule:evenodd;fill:rgb(100%,100%,100%);fill-opacity:1;" d="M 25 15.5 C 24.449219 15.5 24 15.050781 24 14.5 C 24 13.949219 24.449219 13.5 25 13.5 C 25.550781 13.5 26 13.949219 26 14.5 C 26 15.050781 25.550781 15.5 25 15.5 M 27 14.5 C 27 13.398438 26.101562 12.5 25 12.5 C 24.957031 12.5 24.917969 12.511719 24.875 12.511719 C 24.671875 12.011719 24.429688 11.53125 24.148438 11.070312 L 23.300781 11.597656 C 23.539062 11.984375 23.742188 12.398438 23.921875 12.820312 C 23.347656 13.1875 23 13.820312 23 14.5 C 23 15.464844 23.6875 16.273438 24.597656 16.460938 C 24.554688 18.242188 23.960938 19.96875 22.898438 21.398438 L 23.699219 21.992188 C 24.90625 20.375 25.570312 18.417969 25.601562 16.398438 C 26.429688 16.136719 26.996094 15.371094 27 14.5 M 22 10 C 21.449219 10 21 9.550781 21 9 C 21 8.449219 21.449219 8 22 8 C 22.550781 8 23 8.449219 23 9 C 23 9.550781 22.550781 10 22 10 M 24 9 C 24 7.898438 23.101562 7 22 7 C 20.898438 7 20 7.898438 20 9 C 20 10.101562 20.898438 11 22 11 C 23.101562 11 24 10.101562 24 9 M 11 7.5 C 11 6.949219 11.449219 6.5 12 6.5 C 12.550781 6.5 13 6.949219 13 7.5 C 13 8.050781 12.550781 8.5 12 8.5 C 11.449219 8.5 11 8.050781 11 7.5 M 14 7.5 C 14 6.398438 13.101562 5.5 12 5.5 C 10.898438 5.5 10 6.398438 10 7.5 C 10 8.601562 10.898438 9.5 12 9.5 C 13.101562 9.5 14 8.601562 14 7.5 M 14.550781 7.542969 L 14.398438 6.554688 C 16.195312 6.28125 18.03125 6.515625 19.699219 7.234375 L 19.300781 8.152344 C 17.804688 7.507812 16.160156 7.296875 14.550781 7.542969 M 7 15 C 6.449219 15 6 14.550781 6 14 C 6 13.449219 6.449219 13 7 13 C 7.550781 13 8 13.449219 8 14 C 8 14.550781 7.550781 15 7 15 M 10.316406 9.425781 L 9.683594 8.652344 C 8.570312 9.5625 7.671875 10.707031 7.054688 12.003906 C 7.035156 12.003906 7.019531 12 7 12 C 5.898438 12 5 12.898438 5 14 C 5 14.785156 5.457031 15.457031 6.113281 15.785156 C 6.109375 15.921875 6.101562 16.058594 6.101562 16.199219 C 6.105469 19.023438 7.328125 21.707031 9.457031 23.5625 L 10.113281 22.808594 C 8.199219 21.144531 7.101562 18.734375 7.101562 16.199219 C 7.101562 16.128906 7.105469 16.058594 7.109375 15.988281 C 8.167969 15.933594 9 15.058594 9 14 C 9 13.273438 8.605469 12.640625 8.023438 12.292969 C 8.578125 11.1875 9.359375 10.210938 10.316406 9.425781 M 20.28125 22.324219 C 19.683594 24.636719 16.855469 25.289062 15.851562 25.453125 C 15.613281 24.601562 15.167969 22.40625 16.140625 20.308594 C 16.203125 20.175781 16.273438 20.039062 16.347656 19.90625 C 16.941406 18.84375 17.421875 17.847656 17.265625 16.457031 C 17.199219 15.894531 16.917969 15.125 16.605469 14.414062 C 17.558594 15.421875 18.523438 17.132812 18.101562 19.761719 C 18.066406 19.964844 18.164062 20.171875 18.34375 20.273438 C 18.519531 20.378906 18.746094 20.359375 18.90625 20.230469 C 18.945312 20.199219 19.675781 19.59375 20.050781 18.144531 C 20.46875 18.800781 20.863281 20.066406 20.28125 22.324219 M 13.027344 23.921875 C 11.65625 22.96875 11.21875 21.097656 12.03125 19.667969 C 12.066406 19.605469 12.101562 19.542969 12.144531 19.476562 C 12.898438 18.296875 12.714844 16.703125 12.476562 15.6875 C 13.09375 16.132812 13.644531 16.964844 13.835938 17.320312 C 13.929688 17.492188 14.117188 17.59375 14.316406 17.578125 C 14.511719 17.566406 14.683594 17.4375 14.75 17.25 C 15.414062 15.359375 15.105469 13.925781 14.644531 12.96875 C 14.71875 13.015625 14.785156 13.0625 14.851562 13.113281 C 15.261719 13.859375 16.167969 15.671875 16.269531 16.570312 C 16.394531 17.667969 16.019531 18.445312 15.472656 19.417969 C 15.390625 19.570312 15.308594 19.726562 15.234375 19.886719 C 14.3125 21.871094 14.488281 23.890625 14.734375 25.085938 C 14.253906 24.8125 13.828125 24.507812 13.464844 24.238281 C 13.308594 24.125 13.164062 24.015625 13.027344 23.921875 M 19.96875 16.667969 C 19.820312 16.589844 19.644531 16.585938 19.496094 16.664062 C 19.347656 16.742188 19.25 16.886719 19.230469 17.054688 C 19.210938 17.253906 19.183594 17.4375 19.148438 17.605469 C 18.722656 14.0625 15.886719 12.535156 15.480469 12.332031 C 14.910156 11.90625 14.226562 11.625 13.390625 11.476562 C 13.167969 11.4375 12.945312 11.554688 12.847656 11.757812 C 12.753906 11.964844 12.808594 12.210938 12.984375 12.355469 C 13.050781 12.410156 14.421875 13.601562 14.074219 15.871094 C 13.53125 15.183594 12.699219 14.390625 11.722656 14.390625 C 11.558594 14.390625 11.402344 14.472656 11.308594 14.609375 C 11.214844 14.746094 11.195312 14.921875 11.257812 15.074219 C 11.519531 15.753906 12.042969 17.777344 11.300781 18.9375 C 11.253906 19.011719 11.210938 19.085938 11.164062 19.167969 C 10.09375 21.046875 10.664062 23.496094 12.453125 24.742188 C 12.585938 24.832031 12.722656 24.933594 12.871094 25.042969 C 13.503906 25.511719 14.292969 26.097656 15.332031 26.46875 C 15.382812 26.488281 15.441406 26.5 15.5 26.5 C 15.515625 26.5 15.539062 26.5 15.550781 26.496094 C 16.042969 26.453125 20.371094 25.96875 21.25 22.574219 C 22.414062 18.066406 20.070312 16.722656 19.96875 16.667969 "/>
</g>
</svg>

<svg role="img" viewBox="0 0 32 32" xmlns="http://www.w3.org/2000/svg" xmlns:xlink="http://www.w3.org/1999/xlink"><defs><linearGradient gradientTransform="scale(32)" gradientUnits="userSpaceOnUse" id="a" x1="0" x2="1" y1="1" y2="0"><stop offset="0" style="stop-color:rgb(74.117649%,3.137255%,8.627451%);stop-opacity:1"/><stop offset="1" style="stop-color:rgb(100%,32.156864%,32.156864%);stop-opacity:1"/></linearGradient></defs><path d="M0 0h32v32H0z" style="fill:url(#a);stroke:none"/><path d="M25 15.5c-.55 0-1-.45-1-1s.45-1 1-1 1 .45 1 1-.45 1-1 1m2-1c0-1.102-.898-2-2-2-.043 0-.082.012-.125.012a9.576 9.576 0 0 0-.727-1.442l-.847.528c.238.386.441.8.62 1.222A1.995 1.995 0 0 0 23 14.5c0 .965.688 1.773 1.598 1.96a8.639 8.639 0 0 1-1.7 4.938l.801.594a9.605 9.605 0 0 0 1.903-5.594A1.998 1.998 0 0 0 27 14.5M22 10c-.55 0-1-.45-1-1s.45-1 1-1 1 .45 1 1-.45 1-1 1m2-1c0-1.102-.898-2-2-2-1.102 0-2 .898-2 2 0 1.102.898 2 2 2 1.102 0 2-.898 2-2M11 7.5c0-.55.45-1 1-1s1 .45 1 1-.45 1-1 1-1-.45-1-1m3 0c0-1.102-.898-2-2-2-1.102 0-2 .898-2 2 0 1.102.898 2 2 2 1.102 0 2-.898 2-2m.55.043-.152-.988a9.697 9.697 0 0 1 5.301.68l-.398.917a8.682 8.682 0 0 0-4.75-.609M7 15c-.55 0-1-.45-1-1s.45-1 1-1 1 .45 1 1-.45 1-1 1m3.316-5.574-.632-.774a9.77 9.77 0 0 0-2.63 3.352C7.036 12.004 7.02 12 7 12c-1.102 0-2 .898-2 2 0 .785.457 1.457 1.113 1.785-.004.137-.011.274-.011.414a9.769 9.769 0 0 0 3.355 7.363l.656-.753a8.769 8.769 0 0 1-3.011-6.61c0-.07.003-.14.007-.21A1.994 1.994 0 0 0 9 14c0-.727-.395-1.36-.977-1.707a8.782 8.782 0 0 1 2.293-2.867m9.965 12.898c-.597 2.313-3.426 2.965-4.43 3.13-.238-.852-.683-3.048.29-5.145.062-.133.132-.27.207-.403.593-1.062 1.074-2.058.918-3.449-.067-.562-.348-1.332-.66-2.043.953 1.008 1.917 2.719 1.496 5.348a.497.497 0 0 0 .804.468c.04-.03.77-.636 1.145-2.085.418.656.812 1.921.23 4.18m-7.254 1.597c-1.37-.953-1.808-2.824-.996-4.254.035-.063.07-.125.114-.191.753-1.18.57-2.774.332-3.79.617.446 1.168 1.278 1.359 1.633a.503.503 0 0 0 .914-.07c.664-1.89.355-3.324-.105-4.281.074.047.14.094.207.144.41.746 1.316 2.559 1.418 3.457.125 1.098-.25 1.875-.797 2.848a8.825 8.825 0 0 0-.239.469c-.921 1.984-.746 4.004-.5 5.199-.48-.273-.906-.578-1.27-.848-.155-.113-.3-.222-.437-.316m6.942-7.254a.506.506 0 0 0-.473-.004.51.51 0 0 0-.266.39c-.02.2-.046.384-.082.551-.425-3.543-3.261-5.07-3.668-5.273-.57-.426-1.253-.707-2.09-.855a.5.5 0 0 0-.406.878c.067.055 1.438 1.247 1.09 3.516-.543-.687-1.375-1.48-2.351-1.48a.504.504 0 0 0-.414.218.492.492 0 0 0-.051.465c.262.68.785 2.703.043 3.864-.047.074-.09.148-.137.23-1.07 1.879-.5 4.328 1.29 5.574.132.09.269.192.417.301.633.469 1.422 1.055 2.461 1.426.05.02.11.031.168.031.016 0 .04 0 .05-.004.493-.043 4.821-.527 5.7-3.922 1.164-4.508-1.18-5.851-1.281-5.906" style="stroke:none;fill-rule:evenodd;fill:rgb(100%,100%,100%);fill-opacity:1"/></svg>
